X: 17609
T: Hogmanay, The
R: jig
M: 6/8
K: Dmajor
d/e/|fgf fgf|e2 d d2 e|fgf fed|c2 B B2 B|cdc cdc|B2 A A2 ^G|Ace a2 g|g2 f f2 e|
fgf fgf|e2 d d2 e|fgf fed|c2 B B2 B|cdc cdc|B2 A A2 ^G|Ace a2 c|d3 d2 e||
f3 e3|d3 c3|B2 B BAB|c2 B Ace|g2 g f2 f|e2 e d2 d|c2 c dcB|A2 A d2 e|
f3 e3|d3 c3|B2 B BAB|c2 B Ace|gag fgf efe ded|c2 c cBc|d2 d dcB||
Add d2 e|f3 fde|fff g2 f|e3 e2 d|cde B2 B|cde B2 B|cBc dcB|A2 G F2 A|
Add d2 e|f3 fde|fff g2 f|e3 e2 d|cde B2 B|cde B2 B|A^GA f2 e|d3 d2||

